packages/foundations/assets/icons/functional/images/transportation/pedestrian_14_inverted.svg

<svg width="14" height="14" viewBox="0 0 14 14" fill="none" xmlns="http://www.w3.org/2000/svg">
<g clip-path="url(#clip0_2214_6748)">
<path fill-rule="evenodd" clip-rule="evenodd" d="M7.27302 4.42964C8.00372 4.88824 8.73386 5.34886 9.46345 5.81149C9.74137 5.98682 9.82454 6.35426 9.64921 6.63219C9.48849 6.88695 9.1388 6.9966 8.82851 6.81795C8.3985 6.54856 7.96898 6.27743 7.53993 6.00457C7.42844 7.31798 7.3727 7.97469 7.3727 7.97469C7.4107 7.99149 7.51399 8.06113 7.54392 8.08967C8.15546 8.6729 8.76485 9.26123 8.76485 9.26123C8.81465 9.30902 8.90113 9.45687 8.91301 9.48983C9.15729 10.1677 9.40053 10.8465 9.64271 11.5261C9.75356 11.8354 9.59265 12.1761 9.2833 12.2869C8.99775 12.3893 8.65799 12.2546 8.52246 11.9275C8.29365 11.2936 8.06604 10.6587 7.83966 10.0227L6.91973 9.13987L5.47572 11.9926C5.32729 12.2857 4.9693 12.4031 4.67612 12.2546C4.4055 12.1176 4.24656 11.7272 4.41404 11.455C5.00085 10.2923 5.58879 9.13076 6.17786 7.9703L6.35693 5.86807L5.61716 6.2133L5.44096 7.26985C5.39087 7.56902 5.05505 7.80852 4.75588 7.75843C4.45671 7.70835 4.24731 7.44315 4.25954 7.14773L4.49581 5.70842C4.52354 5.5428 4.64303 5.33797 4.83108 5.26746C5.45494 4.97435 6.07924 4.68308 6.70399 4.39366C6.86123 4.3203 7.07597 4.3203 7.27302 4.42964ZM7.14745 1.6795C7.66936 1.6795 8.09245 2.1026 8.09245 2.6245C8.09245 3.14641 7.66936 3.5695 7.14745 3.5695C6.62554 3.5695 6.20245 3.14641 6.20245 2.6245C6.20245 2.1026 6.62554 1.6795 7.14745 1.6795Z" fill="#1A1C1F"/>
</g>
<defs>
<clipPath id="clip0_2214_6748">
<rect width="14" height="14" fill="white"/>
</clipPath>
</defs>
</svg>

<svg xmlns="http://www.w3.org/2000/svg" width="14" height="14" fill="none"><g clip-path="url(#a)"><path fill="#1A1C1F" fill-rule="evenodd" d="M7.273 4.43q1.095.688 2.19 1.381a.595.595 0 0 1 .186.821.603.603 0 0 1-.82.186q-.645-.404-1.29-.813l-.166 1.97a1 1 0 0 1 .17.115c.612.583 1.222 1.171 1.222 1.171.05.048.136.196.148.229q.366 1.017.73 2.036c.11.31-.05.65-.36.76a.606.606 0 0 1-.76-.358q-.345-.952-.683-1.905l-.92-.883-1.444 2.853a.595.595 0 0 1-.8.262c-.27-.137-.43-.528-.262-.8q.88-1.744 1.764-3.485l.179-2.102-.74.345-.176 1.057c-.05.299-.386.539-.685.488a.595.595 0 0 1-.496-.61l.236-1.44c.028-.165.147-.37.335-.44q.936-.44 1.873-.874a.63.63 0 0 1 .569.036m-.126-2.75a.945.945 0 1 1 0 1.89.945.945 0 0 1 0-1.89" clip-rule="evenodd"/></g><defs><clipPath id="a"><path fill="#fff" d="M0 0h14v14H0z"/></clipPath></defs></svg>
